sedo-logistics/public/login.svg

<svg width="48" height="48" viewBox="0 0 48 48" fill="none" xmlns="http://www.w3.org/2000/svg">
<path d="M24.0229 30C16.8779 30 11.0649 23.271 11.0649 15C11.0649 6.729 16.8769 0 24.0229 0C31.1679 0 36.9809 6.729 36.9809 15C36.9809 23.271 31.1679 30 24.0229 30ZM24.0229 2C17.9809 2 13.0649 7.832 13.0649 15C13.0649 22.168 17.9809 28 24.0229 28C30.0649 28 34.9809 22.168 34.9809 15C34.9809 7.832 30.0649 2 24.0229 2Z" fill="#004661" fill-opacity="0.59"/>
<path d="M47.963 48H0V41.229C0 38.278 1.867 35.628 4.645 34.637L16.981 31.238V27.083H18.981V32.762L5.246 36.542C3.333 37.229 1.999 39.121 1.999 41.229V46H45.963V41.229C45.963 39.122 44.63 37.229 42.644 36.52L28.981 32.762V27.125H30.981V31.238L43.246 34.614C46.096 35.629 47.963 38.277 47.963 41.228V48Z" fill="#004661" fill-opacity="0.59"/>
<path d="M32.7802 13.2179C32.7122 13.2179 32.6442 13.2169 32.5752 13.2139C30.3242 13.1319 27.7002 11.7079 26.0332 9.78286C24.8672 11.2689 23.2022 12.2249 21.1412 12.5749C17.5362 13.1939 13.4132 11.8099 12.1592 10.5929L13.5522 9.15686C14.1562 9.74386 17.5872 11.1509 20.8062 10.6029C22.8042 10.2639 24.2442 9.23686 25.0862 7.55186L25.9222 5.88086L26.8492 7.50286C27.9562 9.44086 30.6122 11.1399 32.6492 11.2149C33.5552 11.2389 34.1992 10.9679 34.6102 10.3579L36.2692 11.4749C35.5092 12.6039 34.2762 13.2179 32.7802 13.2179Z" fill="#004661" fill-opacity="0.59"/>
</svg>

<?xml version="1.0" ?><!DOCTYPE svg  PUBLIC '-//W3C//DTD SVG 1.1//EN'  'http://www.w3.org/Graphics/SVG/1.1/DTD/svg11.dtd'><svg enable-background="new 0 0 48 48" height="48px" version="1.1" viewBox="0 0 48 48" width="48px" xml:space="preserve" xmlns="http://www.w3.org/2000/svg" xmlns:xlink="http://www.w3.org/1999/xlink"><g id="Expanded"><g><g><path d="M24.042,30c-7.145,0-12.958-6.729-12.958-15S16.896,0,24.042,0C31.187,0,37,6.729,37,15S31.187,30,24.042,30z M24.042,2     c-6.042,0-10.958,5.832-10.958,13s4.916,13,10.958,13S35,22.168,35,15S30.084,2,24.042,2z"/></g><g><path d="M47.982,48H0.019v-6.771c0-2.951,1.867-5.601,4.645-6.592L17,31.238v-4.155h2v5.679l-13.735,3.78     c-1.913,0.687-3.247,2.579-3.247,4.687V46h43.964v-4.771c0-2.107-1.333-4-3.319-4.709L29,32.762v-5.637h2v4.113l12.265,3.376     c2.85,1.015,4.717,3.663,4.717,6.614V48z"/></g><g><path d="M32.799,13.218c-0.068,0-0.136-0.001-0.205-0.004c-2.251-0.082-4.875-1.506-6.542-3.431     c-1.166,1.486-2.831,2.442-4.892,2.792c-3.605,0.619-7.728-0.765-8.982-1.982l1.393-1.436c0.604,0.587,4.035,1.994,7.254,1.446     c1.998-0.339,3.438-1.366,4.28-3.051l0.836-1.671l0.927,1.622c1.107,1.938,3.763,3.637,5.8,3.712     c0.906,0.024,1.55-0.247,1.961-0.857l1.659,1.117C35.528,12.604,34.295,13.218,32.799,13.218z"/></g></g></g></svg>
